assets/images/sections/about/twillio_sms_alerts.svg

<svg width="31" height="37" viewBox="0 0 31 37" version="1.1" xmlns="http://www.w3.org/2000/svg" xmlns:xlink="http://www.w3.org/1999/xlink">
<title>smartphone (1)</title>
<desc>Created using Figma</desc>
<g id="Canvas" transform="translate(3 4275)">
<g id="smartphone (1)">
<g id="Shape">
<use xlink:href="#path0_fill" transform="translate(7.2209 -4268.3)" fill="#ED93A3"/>
</g>
<g id="Shape">
<use xlink:href="#path1_fill" transform="translate(11.238 -4263.52)" fill="#ED93A3"/>
</g>
<g id="Shape">
<use xlink:href="#path2_fill" transform="translate(11.238 -4259.45)" fill="#ED93A3"/>
</g>
<g id="Shape">
<use xlink:href="#path3_fill" transform="translate(-2.99621 -4275)" fill="#ED93A3"/>
</g>
<g id="Shape">
<use xlink:href="#path4_fill" transform="translate(5.54584 -4244.03)" fill="#ED93A3"/>
</g>
</g>
</g>
<defs>
<path id="path0_fill" fill-rule="evenodd" d="M 4.99487 19.1855C 4.89633 19.1855 4.7978 19.1631 4.69927 19.1255C 4.41883 19.0122 4.2445 18.7412 4.2445 18.4399L 4.2445 14.9961L 3.13032 14.9961C 1.4022 14.9961 0 13.6021 0 11.8838L 0 3.1123C 0 1.39404 1.4022 0 3.13032 0L 17.5919 0C 19.3201 0 20.7222 1.39404 20.7222 3.1123L 20.7222 11.8838C 20.7222 13.6021 19.3201 14.9961 17.5919 14.9961L 9.70171 14.9961L 5.51785 18.9746C 5.37384 19.1182 5.18435 19.1855 4.99487 19.1855ZM 1.50073 11.8838C 1.50073 12.7808 2.22836 13.5039 3.13032 13.5039L 3.13032 13.5117L 4.99487 13.5117C 5.41174 13.5117 5.74523 13.8433 5.74523 14.2573L 5.74523 16.6992L 8.87555 13.7148C 9.01198 13.5796 9.19389 13.5039 9.39095 13.5039L 17.5844 13.5039C 18.4863 13.5039 19.2139 12.7808 19.2139 11.8838L 19.2139 3.1123C 19.2139 2.21582 18.4863 1.49219 17.5844 1.49219L 3.13032 1.49219C 2.22836 1.49219 1.50073 2.21582 1.50073 3.1123L 1.50073 11.8838Z"/>
<path id="path1_fill" d="M 0.750367 1.49206L 11.5359 1.49206C 11.9528 1.49206 12.2863 1.16049 12.2863 0.746029C 12.2863 0.331568 11.9528 0 11.5359 0L 0.750367 0C 0.333496 0 0 0.331568 0 0.746029C 0 1.16049 0.341076 1.49206 0.750367 1.49206Z"/>
<path id="path2_fill" d="M 12.2863 0.746029C 12.2863 0.331568 11.9528 0 11.5359 0L 0.750367 0C 0.333496 0 0 0.331568 0 0.746029C 0 1.16049 0.333496 1.49206 0.750367 1.49206L 11.5359 1.49206C 11.9528 1.49206 12.2863 1.16049 12.2863 0.746029Z"/>
<path id="path3_fill" d="M 23.087 34.2043L 23.087 24.2271C 23.087 23.8126 22.7535 23.4811 22.3367 23.4811C 21.9198 23.4811 21.5863 23.8126 21.5863 24.2271L 21.5863 34.2118C 21.5863 34.8976 21.0254 35.4552 20.3357 35.4552L 2.75134 35.4552C 2.06161 35.4552 1.50073 34.8976 1.50073 34.2118L 1.50073 2.73544C 1.50073 2.04969 2.06161 1.49959 2.75134 1.49959L 20.3357 1.49959C 21.0254 1.49959 21.5863 2.05723 21.5863 2.73544L 21.5863 4.29532C 21.5863 4.70978 21.9198 5.04134 22.3367 5.04134C 22.7535 5.04134 23.087 4.70978 23.087 4.29532L 23.087 2.73544C 23.087 1.22831 21.8516 0 20.3357 0L 2.75134 0C 1.23545 0 0 1.22831 0 2.73544L 0 34.2118C 0 35.7189 1.23545 36.9473 2.75134 36.9473L 20.3357 36.9473C 21.8592 36.9397 23.087 35.7114 23.087 34.2043Z"/>
<path id="path4_fill" d="M 5.26015 0L 0.750367 0C 0.333496 0 0 0.331568 0 0.746029C 0 1.16049 0.333496 1.49206 0.750367 1.49206L 5.26015 1.49206C 5.67702 1.49206 6.01051 1.16049 6.01051 0.746029C 6.01051 0.331568 5.67702 0 5.26015 0Z"/>
</defs>
</svg>

<svg xmlns="http://www.w3.org/2000/svg" xmlns:xlink="http://www.w3.org/1999/xlink" width="31" height="37"><g fill="#ED93A3" transform="translate(3 4275)"><use xlink:href="#A" x="7.221" y="-4268.3"/><use xlink:href="#B" x="11.238" y="-4263.52"/><use xlink:href="#C" x="11.238" y="-4259.45"/><use xlink:href="#D" x="-2.996" y="-4275"/><use xlink:href="#E" x="5.546" y="-4244.03"/></g><defs><path id="A" d="M4.995 19.186a.83.83 0 0 1-.296-.06.73.73 0 0 1-.455-.686v-3.444H3.13c-1.728 0-3.13-1.394-3.13-3.112V3.112C0 1.394 1.402 0 3.13 0h14.462c1.728 0 3.13 1.394 3.13 3.112v8.772c0 1.718-1.402 3.112-3.13 3.112h-7.9l-4.184 3.978c-.144.144-.333.21-.523.21zM1.5 11.884c0 .897.728 1.62 1.63 1.62v.008h1.865c.417 0 .75.332.75.746V16.7l3.13-2.984c.136-.135.318-.21.515-.21h8.193c.902 0 1.63-.723 1.63-1.62V3.112c0-.896-.728-1.62-1.63-1.62H3.13c-.902 0-1.63.724-1.63 1.62v8.772z" fill-rule="evenodd"/><path id="B" d="M.75 1.492h10.786c.417 0 .75-.332.75-.746S11.953 0 11.536 0H.75C.333 0 0 .332 0 .746a.75.75 0 0 0 .75.746z"/><path id="C" d="M12.286.746c0-.414-.334-.746-.75-.746H.75C.333 0 0 .332 0 .746s.333.746.75.746h10.786c.417 0 .75-.332.75-.746z"/><path id="D" d="M23.087 34.204v-9.977c0-.415-.334-.746-.75-.746s-.75.33-.75.746v9.985a1.25 1.25 0 0 1-1.251 1.243H2.75a1.25 1.25 0 0 1-1.251-1.243v-31.476c0-.686.56-1.236 1.25-1.236h17.584c.7 0 1.25.558 1.25 1.236v1.56c0 .414.333.746.75.746s.75-.332.75-.746v-1.56A2.75 2.75 0 0 0 20.336 0H2.75A2.75 2.75 0 0 0 0 2.735v31.476a2.75 2.75 0 0 0 2.751 2.736h17.584c1.524-.008 2.75-1.236 2.75-2.743z"/><path id="E" d="M5.26 0H.75C.333 0 0 .332 0 .746s.333.746.75.746h4.5c.417 0 .75-.332.75-.746S5.677 0 5.26 0z"/></defs></svg>
